fs/broom_20_filled.svg

<svg viewBox="0 0 20 20" fill="none" xmlns="http://www.w3.org/2000/svg" height="1em" width="1em">
  <path d="M17.9099 2.1816C18.1052 2.37687 18.1052 2.69345 17.9099 2.88871L13.2979 7.50077C13.1919 7.37383 13.0793 7.25054 12.9602 7.13137C12.841 7.01218 12.7177 6.89962 12.5907 6.79366L17.2028 2.1816C17.3981 1.98634 17.7146 1.98634 17.9099 2.1816ZM12.2531 7.83847C10.4957 6.08111 7.64645 6.08111 5.88909 7.83847L5.46751 8.26005L11.8315 14.624L12.2531 14.2024C14.0104 12.4451 14.0104 9.59583 12.2531 7.83847ZM1.74276 10.5917L4.64413 8.85086L4.64645 8.8532L11.1465 15.3532C11.178 15.3847 11.2127 15.4112 11.2495 15.4325L9.49982 18.3487C9.4206 18.4808 9.28498 18.5689 9.13216 18.5878C8.97935 18.6066 8.82639 18.5539 8.71752 18.4451L1.64645 11.374C1.53758 11.2651 1.48494 11.1122 1.50375 10.9593C1.52256 10.8065 1.61073 10.6709 1.74276 10.5917Z" fill="#212121"/>
</svg>

<svg viewBox="0 0 20 20" fill="none" xmlns="http://www.w3.org/2000/svg" height="1em" width="1em">
  <path d="M17.91 2.182a.5.5 0 0 1 0 .707L13.298 7.5a5.602 5.602 0 0 0-.707-.707l4.612-4.612a.5.5 0 0 1 .707 0Zm-5.657 5.656a4.5 4.5 0 0 0-6.364 0l-.421.422 6.364 6.364.421-.422a4.5 4.5 0 0 0 0-6.364Zm-10.51 2.754L4.644 8.85l.002.002 6.5 6.5a.5.5 0 0 0 .103.08L9.5 18.348a.5.5 0 0 1-.781.096l-7.072-7.071a.5.5 0 0 1 .097-.782Z" fill="#212121"/>
</svg>
